packages/radix-icons/twoTone/15/double-arrow-left.svg

<svg width="15" height="15" fill="none" xmlns="http://www.w3.org/2000/svg">
  <path
    fill-rule="evenodd"
    clip-rule="evenodd"
    d="M7.20711 4.20711C7.59763 3.81658 7.59763 3.18342 7.20711 2.79289C6.81658 2.40237 6.18342 2.40237 5.79289 2.79289L1.79289 6.79289C1.40237 7.18342 1.40237 7.81658 1.79289 8.20711L5.79289 12.2071C6.18342 12.5976 6.81658 12.5976 7.20711 12.2071C7.59763 11.8166 7.59763 11.1834 7.20711 10.7929L3.91421 7.5L7.20711 4.20711ZM13.2071 4.20711C13.5976 3.81658 13.5976 3.18342 13.2071 2.79289C12.8166 2.40237 12.1834 2.40237 11.7929 2.79289L7.79289 6.79289C7.40237 7.18342 7.40237 7.81658 7.79289 8.20711L11.7929 12.2071C12.1834 12.5976 12.8166 12.5976 13.2071 12.2071C13.5976 11.8166 13.5976 11.1834 13.2071 10.7929L9.91421 7.5L13.2071 4.20711Z"
    fill="currentColor"
    opacity=".2"
  />
  <path
    fill-rule="evenodd"
    clip-rule="evenodd"
    d="M6.85355 3.85355C7.04882 3.65829 7.04882 3.34171 6.85355 3.14645C6.65829 2.95118 6.34171 2.95118 6.14645 3.14645L2.14645 7.14645C1.95118 7.34171 1.95118 7.65829 2.14645 7.85355L6.14645 11.8536C6.34171 12.0488 6.65829 12.0488 6.85355 11.8536C7.04882 11.6583 7.04882 11.3417 6.85355 11.1464L3.20711 7.5L6.85355 3.85355ZM12.8536 3.85355C13.0488 3.65829 13.0488 3.34171 12.8536 3.14645C12.6583 2.95118 12.3417 2.95118 12.1464 3.14645L8.14645 7.14645C7.95118 7.34171 7.95118 7.65829 8.14645 7.85355L12.1464 11.8536C12.3417 12.0488 12.6583 12.0488 12.8536 11.8536C13.0488 11.6583 13.0488 11.3417 12.8536 11.1464L9.20711 7.5L12.8536 3.85355Z"
    fill="currentColor"
  />
</svg>

<svg width="15" height="15" fill="none" xmlns="http://www.w3.org/2000/svg">
  <path
    fill-rule="evenodd"
    clip-rule="evenodd"
    d="M7.207 4.207a1 1 0 00-1.414-1.414l-4 4a1 1 0 000 1.414l4 4a1 1 0 001.414-1.414L3.914 7.5l3.293-3.293zm6 0a1 1 0 00-1.414-1.414l-4 4a1 1 0 000 1.414l4 4a1 1 0 001.414-1.414L9.914 7.5l3.293-3.293z"
    fill="currentColor"
    opacity=".2"
  />
  <path
    fill-rule="evenodd"
    clip-rule="evenodd"
    d="M6.854 3.854a.5.5 0 10-.708-.708l-4 4a.5.5 0 000 .708l4 4a.5.5 0 00.708-.708L3.207 7.5l3.647-3.646zm6 0a.5.5 0 00-.708-.708l-4 4a.5.5 0 000 .708l4 4a.5.5 0 00.708-.708L9.207 7.5l3.647-3.646z"
    fill="currentColor"
  />
</svg>
